cached_logos/d-fine-gmb-h.svg

<svg xmlns="http://www.w3.org/2000/svg" role="img" viewBox="117.88 363.13 356.98 117.73"><title>d-Fine GmbH logo</title><style>svg {enable-background:new 0 0 595 842}</style><style>.st0{fill-rule:evenodd;clip-rule:evenodd}.st0,.st1{fill:#003c51}</style><path d="M138.15 438.72c0-12.41 3.4-30 15.96-30 11.38 0 15.37 15.96 15.37 30 0 12.56-3.4 30-15.37 30-13.59 0-15.96-17.14-15.96-30zm31.33 33.96h11.53V370l-22.76 3.55v2.51c4.29.44 11.23.89 11.23 9.61v28.97h-.3c-2.07-4.14-7.68-11.38-17-11.38-20.54 0-27.19 17.44-27.19 35.47 0 18.03 6.65 35.47 27.19 35.47 8.28 0 15.67-6.95 17-10.94h.3v9.42z" class="st0"/><path d="M192.52 409.71v-4.04h87.49v4.04h-87.49z" class="st1"/><path d="M314.28 472.68v-69.43l-22.76 3.55v2.51c4.43.3 11.23.74 11.23 9.61v53.76h11.53z" class="st0"/><path d="M466.26 466.77v4.73c-3.55 1.33-8.57 2.66-17.58 2.66-22.9 0-35.75-12.56-35.75-37.38 0-21.57 8.72-33.54 29.99-33.54 13.3 0 25.26 7.39 25.26 24.52v3.25h-42.99c0 12.41 6.06 37.67 30.73 37.67 3.4.01 7.39-.43 10.34-1.91zm-41.07-40.63h29.84c0-7.83-2.66-18.02-14.04-18.02-11.22 0-15.8 12.56-15.8 18.02zm-81.69 46.54V418.9c0-8.86-6.95-9.31-11.23-9.6v-2.51l22.75-3.55v19.5h.29c2.07-5.47 8.72-19.5 23.34-19.5 15.66 0 17.14 8.57 17.14 22.31v47.13h-11.52V428.8c0-12.71-.15-18.47-9.9-18.47-8.72 0-19.35 16.69-19.35 30.73v31.62H343.5zm-94.94-71.05v-3.4c0-19.51 5.32-28.23 27.93-28.23 7.24 0 16.26 2.81 16.26 8.87 0 4.58-3.25 7.09-7.09 7.09-9.31 0-4.88-11.08-14.34-11.08-11.23 0-11.23 9.9-11.23 20.99v5.77h-11.53v-.01zm11.53 71.05h-11.54l.01-58.93h11.53v58.93zm40.98-91.67c0-4.13 3.34-7.47 7.47-7.47s7.47 3.34 7.47 7.47c0 4.12-3.34 7.47-7.47 7.47s-7.47-3.34-7.47-7.47z" class="st1"/></svg>

<svg xmlns="http://www.w3.org/2000/svg" role="img" viewBox="117.88 363.13 356.98 117.73"><title>d-Fine GmbH logo</title><style>svg {enable-background:new 0 0 595 842}</style><style>.st0{fill-rule:evenodd;clip-rule:evenodd}.st0,.st1{fill:#003c51}</style><g><path d="M138.15,438.72c0-12.41,3.4-30,15.96-30c11.38,0,15.37,15.96,15.37,30c0,12.56-3.4,30-15.37,30 C140.52,468.72,138.15,451.58,138.15,438.72L138.15,438.72z M169.48,472.68h11.53l0-102.68l-22.76,3.55v2.51 c4.29,0.44,11.23,0.89,11.23,9.61v28.97h-0.3c-2.07-4.14-7.68-11.38-17-11.38c-20.54,0-27.19,17.44-27.19,35.47 c0,18.03,6.65,35.47,27.19,35.47c8.28,0,15.67-6.95,17-10.94h0.3V472.68L169.48,472.68z" class="st0"/><path d="M192.52 409.71L192.52 405.67 280.01 405.67 280.01 409.71 192.52 409.71z" class="st1"/><path d="M314.28,472.68l0-69.43l-22.76,3.55v2.51c4.43,0.3,11.23,0.74,11.23,9.61l0,53.76H314.28L314.28,472.68z" class="st0"/><path d="M466.26 466.77v4.73c-3.55 1.33-8.57 2.66-17.58 2.66-22.9 0-35.75-12.56-35.75-37.38 0-21.57 8.72-33.54 29.99-33.54 13.3 0 25.26 7.39 25.26 24.52v3.25h-42.99c0 12.41 6.06 37.67 30.73 37.67C459.32 468.69 463.31 468.25 466.26 466.77L466.26 466.77zM425.19 426.14h29.84c0-7.83-2.66-18.02-14.04-18.02C429.77 408.12 425.19 420.68 425.19 426.14L425.19 426.14zM343.5 472.68V418.9c0-8.86-6.95-9.31-11.23-9.6v-2.51l22.75-3.55v19.5h.29c2.07-5.47 8.72-19.5 23.34-19.5 15.66 0 17.14 8.57 17.14 22.31v47.13h-11.52V428.8c0-12.71-.15-18.47-9.9-18.47-8.72 0-19.35 16.69-19.35 30.73v31.62H343.5L343.5 472.68zM248.56 401.63v-3.4c0-19.51 5.32-28.23 27.93-28.23 7.24 0 16.26 2.81 16.26 8.87 0 4.58-3.25 7.09-7.09 7.09-9.31 0-4.88-11.08-14.34-11.08-11.23 0-11.23 9.9-11.23 20.99v5.77H248.56L248.56 401.63zM260.09 472.68h-11.54l.01-58.93h11.53L260.09 472.68 260.09 472.68zM301.07 381.01c0-4.13 3.34-7.47 7.47-7.47 4.13 0 7.47 3.34 7.47 7.47 0 4.12-3.34 7.47-7.47 7.47C304.41 388.48 301.07 385.14 301.07 381.01L301.07 381.01z" class="st1"/></g></svg>
